modules/themify-icons/icons/uppercase.svg

<?xml version="1.0" encoding="utf-8"?>
<!-- Generated by IcoMoon.io -->
<!DOCTYPE svg PUBLIC "-//W3C//DTD SVG 1.1//EN" "http://www.w3.org/Graphics/SVG/1.1/DTD/svg11.dtd">
<svg version="1.1" xmlns="http://www.w3.org/2000/svg" xmlns:xlink="http://www.w3.org/1999/xlink" width="17" height="17" viewBox="0 0 17 17">
<g>
</g>
	<path d="M7 4h1v2h-1v-1h-2v8h1v1h-3v-1h1v-8h-2v1h-1v-2h6zM15 4h-6v2h1v-1h2v8h-1v1h3v-1h-1v-8h2v1h1v-2h-1z" fill="#000000" />
</svg>

<svg xmlns="http://www.w3.org/2000/svg" width="17" height="17"><path d="M7 4h1v2H7V5H5v8h1v1H3v-1h1V5H2v1H1V4h6zm8 0H9v2h1V5h2v8h-1v1h3v-1h-1V5h2v1h1V4h-1z"/></svg>
